icon/pk/blockchain.svg

<svg width="48" height="48" fill="none" xmlns="http://www.w3.org/2000/svg"><path d="M40 30V15L27.5 7.969m-7 0L8 15v15m3 4.688L24 42l8-4.5 5-2.813" stroke="#000" stroke-width="4" stroke-linecap="round" stroke-linejoin="round"/><path d="m21 18.75-3 1.75v7l3 1.75L24 31l3-1.75 3-1.75v-7l-3-1.75L24 17l-3 1.75Z" fill="#2F88FF" stroke="#000" stroke-width="4" stroke-linecap="round" stroke-linejoin="round"/><path d="M24 17v-7M30 27l7 4M18 27l-7 4" stroke="#000" stroke-width="4" stroke-linecap="round" stroke-linejoin="round"/><circle cx="24" cy="7" r="3" fill="#2F88FF" stroke="#000" stroke-width="4" stroke-linecap="round" stroke-linejoin="round"/><circle cx="8" cy="33" r="3" fill="#2F88FF" stroke="#000" stroke-width="4" stroke-linecap="round" stroke-linejoin="round"/><circle cx="40" cy="33" r="3" fill="#2F88FF" stroke="#000" stroke-width="4" stroke-linecap="round" stroke-linejoin="round"/></svg>

<svg viewBox="0 0 48 48" fill="none" xmlns="http://www.w3.org/2000/svg" height="1em" width="1em">
  <path d="M40 30V15L27.5 7.96875M20.5 7.96875L8 15V30M11 34.6875L24 42L32 37.5L37 34.6875" stroke="black" stroke-width="4" stroke-linecap="round" stroke-linejoin="round"/>
  <path d="M21 18.75L18 20.5V24V27.5L21 29.25L24 31L27 29.25L30 27.5V24V20.5L27 18.75L24 17L21 18.75Z" fill="#2F88FF" stroke="black" stroke-width="4" stroke-linecap="round" stroke-linejoin="round"/>
  <path d="M24 17V10" stroke="black" stroke-width="4" stroke-linecap="round" stroke-linejoin="round"/>
  <path d="M30 27L37 31" stroke="black" stroke-width="4" stroke-linecap="round" stroke-linejoin="round"/>
  <path d="M18 27L11 31" stroke="black" stroke-width="4" stroke-linecap="round" stroke-linejoin="round"/>
  <circle cx="24" cy="7" r="3" fill="#2F88FF" stroke="black" stroke-width="4" stroke-linecap="round" stroke-linejoin="round"/>
  <circle cx="8" cy="33" r="3" fill="#2F88FF" stroke="black" stroke-width="4" stroke-linecap="round" stroke-linejoin="round"/>
  <circle cx="40" cy="33" r="3" fill="#2F88FF" stroke="black" stroke-width="4" stroke-linecap="round" stroke-linejoin="round"/>
</svg>
